X:1
T:OTTAWA
C:Lowell Mason (1792-1872)
Z:Terms:Public Domain
Z:Transcription:Converted on 2026-05-09 using nwctxt2abc from https://github.com/freehymns/translator
Z:Sources:The Cyber Hymnal(tm), from Redemption Songs (London: Pickering & Inglis, undated, probably early 20th Century), # 835. Page image at https://hymnary.org/hymn/RS1900/page/1021, accessed 1 Feb 2018.
I:score (1 2) (3 4)
I:voicecombine 1
L:1/1
M:2/2
Q:1/4=140
K:G
V:1 clef=treble stem=up
[M:2/2] G/2 A/2 | B/4 G/4 c/4 B/4 | B/2 A/2 | \
w:A1 A2 A3 A4 A5 A6 A7 A8
G/4 c/4 B/4 A/4 | G/2 F/2 | G \
w:B1 B2 B3 B4 B5 B6 B7
G/2 A/2 | B/4 G/4 c/4 B/4 | B/2 A/2 | \
w:C1 C2 C3 C4 C5 C6 C7 C8
G/4 c/4 B/4 A/4 | G/2 F/2 | G \
w:D1 D2 D3 D4 D5 D6 D7
d/2 e/2 | d/2 B/2 | d/2 e/2 | d \
w:E1 E2 E3 E4 E5 E6 E7
G/4 A/4 B/4 A/4 | G/2 F/2 | G |]
w:F1 F2 F3 F4 F5 F6 F7
V:2 clef=treble stem=down
G/2 F/2 | G/4 D/4 D/4 D/4 | G/2 F/2 | \
E/4 E/4 G/4 E/4 | D/2 D/2 | D \
G/2 F/2 | G/4 D/4 D/4 D/4 | G/2 F/2 | \
E/4 E/4 G/4 E/4 | D/2 D/2 | D \
G/2 G/2 | G/2 G/2 | G/2 G/2 | G \
D/4 D/4 D/4 E/4 | D/2 D/2 | D |]
V:3 clef=bass stem=up
I:pos vocal above
[M:2/2] B,/2 D/2 | D/4 B,/4 A,/4 G,/4 | D/2 D/2 | \
B,/4 A,/4 D/4 C/4 | B,/2 (A,/4 C/4) | B, \
B,/2 D/2 | D/4 B,/4 A,/4 G,/4 | D/2 D/2 | \
B,/4 A,/4 D/4 C/4 | B,/2 (A,/4 C/4) | B, \
B,/2 C/2 | B,/2 G,/2 | B,/2 C/2 | B, \
B,/4 A,/4 G,/4 C/4 | B,/2 (A,/4 C/4) | B, |]
V:4 clef=bass stem=down
G,/2 D,/2 | G,/4 B,/4 F,/4 G,/4 | D,/2 D,/2 | \
E,/4 A,,/4 B,,/4 C,/4 | D,/2 D,/2 | G,, \
G,/2 D,/2 | G,/4 B,/4 F,/4 G,/4 | D,/2 D,/2 | \
E,/4 A,,/4 B,,/4 C,/4 | D,/2 D,/2 | G,, \
G,/2 C,/2 | G,/2 G,/2 | G,/2 C,/2 | G, \
B,/4 F,/4 G,/4 C,/4 | D,/2 D,/2 | G,, |]

